media/icon-file-type/svgs/executable/24.svg

<svg width="24" height="24" viewBox="0 0 24 24"><path fill="#758195" fill-rule="evenodd" d="M3,0 L21,0 C22.6568542,-3.04359188e-16 24,1.34314575 24,3 L24,21 C24,22.6568542 22.6568542,24 21,24 L3,24 C1.34314575,24 2.02906125e-16,22.6568542 0,21 L0,3 C-2.02906125e-16,1.34314575 1.34314575,3.04359188e-16 3,0 Z M5,13 L5,18 C5,18.5522847 5.44771525,19 6,19 L18,19 C18.5522847,19 19,18.5522847 19,18 L19,13 L5,13 Z M6.88278222,5 C6.37845895,5 5.95305794,5.37553644 5.89050434,5.87596527 L5,13 L19,13 L18.1094957,5.87596527 C18.0469421,5.37553644 17.6215411,5 17.1172178,5 L6.88278222,5 Z M8,15 L16,15 C16.5522847,15 17,15.4477153 17,16 C17,16.5522847 16.5522847,17 16,17 L8,17 C7.44771525,17 7,16.5522847 7,16 C7,15.4477153 7.44771525,15 8,15 Z"/></svg>

<svg width="24" height="24" viewBox="0 0 24 24"><path fill="#5E6C84" fill-rule="evenodd" d="M3 0h18a3 3 0 013 3v18a3 3 0 01-3 3H3a3 3 0 01-3-3V3a3 3 0 013-3zm2 13v5a1 1 0 001 1h12a1 1 0 001-1v-5H5zm1.883-8a1 1 0 00-.992.876L5 13h14l-.89-7.124A1 1 0 0017.116 5H6.883zM8 15h8a1 1 0 010 2H8a1 1 0 010-2z"/></svg>
